X:15
T:Frank Ryan's Hornpipe
C:Ward Allen
R:Hornpipe
M:2/4
L:1/16
Z:abc by Bruce Osborne - bosborne@kos.net
K:Bb
FE|DFBd cBAc|Bdgf dBBd|AFcF ecAc|gf=eg f2FE|
DFBd cBAc|Bdgf dBBd|AFcF ecAc|Bdfd B2:|
|:f2|dBBB ecAc|BABG FAcB|AFcF ecAc|gf=eg fgf_e|
dBBA ecAc|BABG FAcB|AFcF ecAc|Bdfd B2:|
